public/icons/save.svg

<!DOCTYPE svg PUBLIC "-//W3C//DTD SVG 1.1//EN" "http://www.w3.org/Graphics/SVG/1.1/DTD/svg11.dtd">
<!-- Uploaded to: SVG Repo, www.svgrepo.com, Transformed by: SVG Repo Mixer Tools -->
<svg fill="#1c274d" width="800px" height="800px" viewBox="0 0 32 32" version="1.1" xmlns="http://www.w3.org/2000/svg">
<g id="SVGRepo_bgCarrier" stroke-width="0"/>
<g id="SVGRepo_tracerCarrier" stroke-linecap="round" stroke-linejoin="round"/>
<g id="SVGRepo_iconCarrier"> <title>save</title> <path d="M9.467 3.106h3.030c0.266 0 0.482 0.278 0.482 0.621v4.374c0 0.343-0.216 0.621-0.482 0.621h-3.030c-0.266 0-0.482-0.278-0.482-0.621v-4.374c0-0.343 0.216-0.621 0.482-0.621zM21.964 14.524l7.987 7.987h-3.993v7.987h-7.987v-7.987h-3.993l7.987-7.987zM17.422 24.768h-10.309c-0.276 0-0.499-0.223-0.499-0.499v-11.481c0-0.276 0.223-0.499 0.499-0.499h17.721c0.276 0 0.499 0.223 0.499 0.499v4.402l3.12 3.12v-13.262c0-0.276-4.216-4.493-4.493-4.493h-4.741c0.169 0.069 0.287 0.223 0.287 0.404v6.181c0 0.244-0.216 0.442-0.482 0.442h-10.594c-0.266 0-0.482-0.198-0.482-0.442v-6.181c0-0.18 0.118-0.335 0.287-0.404h-4.242c-0.277 0-0.499 0.223-0.499 0.499v23.961c0 0.277 0.223 0.499 0.499 0.499h13.429v-2.746zM26.506 22.903v4.611h1.449c0.277 0 0.499-0.223 0.499-0.499v-4.111l-1.948 0z"/> </g>
</svg>

<svg xmlns="http://www.w3.org/2000/svg" width="800" height="800" fill="#1c274d" viewBox="0 0 32 32"><path d="M9.47 3.1h3.03c.26 0 .48.28.48.63V8.1c0 .34-.22.62-.48.62H9.47c-.27 0-.49-.28-.49-.62V3.73c0-.35.22-.62.49-.62zm12.5 11.42 7.98 8h-4v7.98h-7.98V22.5h-4l8-7.99zm-4.55 10.25H7.12a.5.5 0 0 1-.5-.5V12.79c0-.28.22-.5.5-.5h17.71c.28 0 .5.22.5.5v4.4l3.12 3.12V7.05c0-.28-4.21-4.5-4.49-4.5h-4.74c.17.07.29.23.29.4v6.19c0 .24-.22.44-.49.44H8.43c-.27 0-.48-.2-.48-.44V2.96c0-.18.12-.34.29-.4H3.99a.5.5 0 0 0-.5.5V27c0 .28.23.5.5.5h13.43v-2.74zm9.09-1.87v4.61h1.44a.5.5 0 0 0 .5-.5v-4.1h-1.94z"/></svg>
